X:1
T:Chopin Ballade No. 1 in G Minor
T:Ballade No. 1 in G Minor
T:Frederic Chopin
C:Frederic Chopin
%%score { ( 1 4 5 6 ) | ( 2 3 ) }
L:1/8
Q:1/4=72
M:4/4
K:Bb
V:1 treble nm="Piano" snm="Pno."
V:4 treble 
V:5 treble 
V:6 treble 
V:2 bass 
V:3 bass 
V:1
"_pesante" z8 | C_A,EB c_Aeb |!>(! c'g[Q:1/4=60]b_a g2[Q:1/4=20] ^f[Q:1/4=72] z!>)! | %3
 z[Q:1/4=70] (^fgf ^e[Q:1/4=45]f[Q:1/4=90] ag[Q:1/4=50]_e | %4
[Q:1/4=55] e>[Q:1/4=60]d =fe[Q:1/4=50] d d2)[Q:1/4=80] z2 | %5
[Q:1/4=80]!mp! z4[Q:1/4=45]!>(! !>!c3!>)! G |[Q:1/4=45] z B-[Q:1/4=115] B6- || %7
[M:6/4]"^Moderato" B6[Q:1/4=35] z[Q:1/4=80]!p! !>!CD^F[Q:1/4=120]BA |[Q:1/4=135] G6 (d6 | %9
 c6)[Q:1/4=120][Q:1/4=110] z[Q:1/4=100] !>!CD^F[Q:1/4=130]BA |[Q:1/4=135] G6[Q:1/4=125] (=E6 | %11
 ^F6)[Q:1/4=120] x[Q:1/4=100] !>!CD^F[Q:1/4=130]BA |[Q:1/4=135] G6 (g6 | %13
 f6)[Q:1/4=105][Q:1/4=95] !>!EFAe =d z/[Q:1/4=100] ^c/ |[Q:1/4=130] (^c6 d6 | %15
 =c6)[Q:1/4=120] z[Q:1/4=100] (!>!CD^F[Q:1/4=130]BA |[Q:1/4=135] G6) (d6 | %17
 c6)[Q:1/4=110] z[Q:1/4=100] !>!CD^F[Q:1/4=130]BA |[Q:1/4=135] G6 (=E6 | %19
 ^F6)[Q:1/4=115] x[Q:1/4=100] !>!CD^F[Q:1/4=130]BA |[Q:1/4=140]!<(! G6!<)!!>(! g6!>)! | %21
!p![Q:1/4=120] g6[Q:1/4=130] d6 |[Q:1/4=140] c6!<(! G6 |[Q:1/4=155] (!>!g6 !>!d6!<)! | %24
!mf! !>!c6 !>!G6) | F6 d6 | z2{/d} c2 =B2 c2 d2 e2 | !>!e6 !>!d6 | %28
 z2{/B} A2!<(! ^G2[Q:1/4=145] A2 B2 c2!<)! | c6 B6 | %30
 A6"^riten."[Q:1/4=130]!<(! (A4!<)! A2)[Q:1/4=100] | %31
 x[Q:1/4=15] !arpeggio![A,=EA-]2 x x A- A4!f![Q:1/4=65] A2-[Q:1/4=135] | %32
[Q:1/4=60]!mf! (A/[Q:1/4=120]B/A/^G/ A/[Q:1/4=130]=g/=e/f/ f/g'/f'/=e'/[Q:1/4=110] (18:6:18_e'c'abd'c'bgfd_e=ef^f[Q:1/4=70]ag=f_e) | %33
[Q:1/4=100] ^c z[Q:1/4=125] !>!d4- (d2 =c2 G2 | B6[Q:1/4=110]!>(! ^F6!>)! | %35
[Q:1/4=90]!p! G2)[Q:1/4=125] ([Bb]dfe- e2) ([Aa]^ced- | d2) ([Bb]dfe- e2)[Q:1/4=140] ([_A_a]^ced- | %37
 d2)!mp! ([Gg]=Bd=c- c2)[Q:1/4=150] ([Cc]^G_BA- |!<(! A2) ([Ee]=Bdc-!<)! c2) !>!=G2 !>![^FA]2 | %39
 !>![_B,G_B]2"^agitato"[Q:1/4=150]!f! Bd=fe z2[Q:1/4=155] A^ced | z2 B[Q:1/4=170]dfe z2 A^ced | %41
 z2[Q:1/4=185] G[Q:1/4=195]=Bd=c z2[Q:1/4=190] C[Q:1/4=190]^G_BA | %42
 z2 A[Q:1/4=210]=Bdc z2 (^F,[Q:1/4=250]^CED | %43
 [_B,G]2)[I:staff +1] (!>![G,=C][I:staff -1]B,A,[I:staff +1]G,[I:staff -1] [B,G]2)[I:staff +1] (!>![G,C][I:staff -1]B,A,[I:staff +1]G,) | %44
[Q:1/4=270]"^sempre piu mosso"[I:staff -1] (FCE^F,CE ^Fc=fedc | %45
 [Bg]2)[Q:1/4=270] (!>![Gc]BAG [Bg]2) ([Gc]BAG) |[Q:1/4=285] (fc"^l.h."e^Fce ^fc'=f'e'd'c') | %47
 [bg']2 z[Q:1/4=295]!8va(! ([g'c'']b'd' [^f'b']a'd'[^fb]ad | %48
 [gc']bd'[g'c'']b'd' [^f'b']a'd'[^fb]ad | [gc']bd'[g'c'']b'd' [^f'b']a'd'[^fb]a!8va)!D | %50
 [Gc]Bd[gc']bd [^fb]ad[^FB]AD | [Gc]Bd[gc']bd [da]gB[Be]dG | %52
 [G=c]BD[DA]GB, [B,E]D[I:staff +1]G,[G,=C]B,D,) |[I:staff -1] z12 | z12 | %55
[I:staff +1] G,!<(![I:staff -1]DB,DGB!<)! dgbd'!8va(!g'!f!d'' | %56
 b'!>(!d''g'!8va)!dbg dB!>)!GD[I:staff +1]B,D, | %57
 (G,!>(![I:staff -1]DB,DG!>)!d BdGD[I:staff +1]B,D,) | %58
[Q:1/4=270] (^F,!>(![I:staff -1]DB,D^F!>)!d BdFD[I:staff +1]B,D,) | %59
[Q:1/4=250] (G,[I:staff -1]DB,DGB dg[Q:1/4=210]bd'!8va(!g'd'' | %60
!>(! b'[Q:1/4=225]d''g'!8va)!db!>)!g dBGD[I:staff +1]B,D,) | %61
!mf! (_G,[Q:1/4=240][I:staff -1]D!>(!B,D_G!>)!d BdGD[I:staff +1]B,D,) | %62
[Q:1/4=225] (F,"^calando"[I:staff -1]D!>(!B,DF!>)!d[Q:1/4=215] Bd[Q:1/4=165]FD[Q:1/4=120][I:staff +1]B,D,) | %63
"^smorz."[Q:1/4=140] (F,[I:staff -1]C[I:staff +1]A,[I:staff -1]CFA cf[Q:1/4=115]ac'!8va(!f'a' | %64
 f''2)!8va)! z2 z8[Q:1/4=100] |"^riten."[Q:3/16=160] z12[Q:1/4=120] | %66
 z4[Q:1/4=95] z2 z4[Q:3/16=35]"^sotto voce""^Meno mosso." [CF]2-[Q:1/4=60] | %67
[Q:1/4=140] ([CF]6 G4 G2[Q:1/4=180] |[Q:1/4=200] E6-[Q:1/4=195] E2) e3[Q:1/4=125] (d | %69
[Q:1/4=200] [Gc]6[Q:1/4=190] d4 d2 |[Q:1/4=200] B4) x8[Q:1/4=260] | %71
[Q:1/4=200] b4 _a2[Q:1/4=190] (a2 g2[Q:1/4=260] ^f2 |[Q:1/4=190] ^f4 g4) (_a3 e | g4 =f4) (g3 d | %74
[Q:1/4=165] f2 e2 d2[Q:1/4=130] (3cdc x x x2 |[Q:1/4=170] [CF]6)[Q:1/4=200]!mp! D6 | %76
 E6- E2 (e3[Q:1/4=130] d |[Q:1/4=200] [Gc]6) (d4 d2 | B4) x8[Q:1/4=170][Q:1/4=119] | %79
[Q:1/4=125]!p! b2[Q:1/4=195] z2 z2 c4 (d2[Q:1/4=160] | %80
[Q:1/4=140] (3_efe d2 e2)[Q:1/4=120] (g2[Q:1/4=45] g2- (3g[Q:1/4=50]fe | %81
[Q:1/4=140] e6) z2[Q:1/4=110] (G_A (3Bdc) |[Q:1/4=155] B6- B2[Q:1/4=115] (F_A (3Bdc) | %83
[Q:1/4=155] B6- B2[Q:1/4=115] F_A (3Bdc | B2- (3(B_DE (3GcB) _A2- (A_CEF | %85
[Q:1/4=155] G4) z2 z2[Q:1/4=110]!mp! (G_A (3Bdc | %86
[Q:1/4=155] B2 !>!b6) (3z[Q:1/4=130]!pp! (G_A (3Bdc)[Q:1/4=80] | %87
[Q:1/4=145] (B2 !>!b6) (3z[Q:1/4=115]!p! (F_A (3Bdc) | %88
 B2- (3(B[Q:1/4=110]_DE (3GcB (_A2-) A[Q:1/4=100]!>!_CEF | %89
[Q:1/4=145] G6-) G(G"_dim."B[Q:1/4=125]gf[Q:1/4=115]e) |[Q:1/4=130] d6- d(Bdbde[Q:1/4=140] | %91
[Q:1/4=117] =e2 f4-) f(dfd'c'b)[Q:1/4=140] | %92
 (^ga[Q:1/4=130]"_rallent."f'=e'[Q:1/4=100]d'a"^m.d.""_m.g." d[Q:1/4=80]AFD[Q:1/4=70]=E{/G}F) | %93
"^a tempo."[Q:1/4=120] x2 x2[Q:1/4=100] x2 z (D[Q:1/4=120]=E^G[Q:1/4=140]c=B | %94
 A6)"_m.g."[Q:1/4=130] (=e6 | d6) z[Q:1/4=130] (D=E^G[Q:1/4=140]c=B | A6)[Q:1/4=125] ^F4 x2 | %97
 ^G6 z[Q:1/4=110]!pp! (D=EG[Q:1/4=140]c=B | A6) =e6 | %99
"_m.g."[Q:1/4=130] ^f6 z[Q:1/4=110]!p! (C=E[Q:1/4=145]^G=BA |!<(! A6)!<)! (^f6 | %101
"_m.g."!>(! ^g6!>)![Q:1/4=175]"_m.g." ^f4) z (g |!>(! ^g6!>)! ^f4) z (g | %103
[Q:1/4=185]!>(! ^g6!>)! ^f4) z g |!>(! a6!>)![Q:1/4=150] ^g4[Q:1/4=110] a2 | %105
!ff![Q:1/4=90] ([=Bd=e^g=b]6[Q:1/4=150] [deg^c']4 [degc']2[Q:1/4=135][Q:1/4=165] | %106
[Q:1/4=180] [A^ca]6)[Q:1/4=190] ([a^c'a']4 [^gc'^g']2[Q:1/4=200] | %107
[Q:1/4=175] [^f^c'^f']6 [=b^d'^g']4 [bd'g']2[Q:1/4=185][Q:1/4=190] | %108
 [=e^g=e']6)[Q:1/4=175] ([ee']4[Q:1/4=190] [ee']2 | %109
[Q:1/4=190] !>![=e=e']4 [dd']2)[Q:1/4=130] (3(([dd'][Q:1/4=190][ee'][dd'])[Q:1/4=200] [^c^c'][dd'][Q:1/4=170][^f^f'][ee']) | %110
[Q:1/4=190] !>![dd']4 [^c^c']2[Q:1/4=130] (3(([cc'][Q:1/4=190][dd'][cc'])[Q:1/4=200] [^B^b][cc'][Q:1/4=170][=e=e'][dd']) | %111
[Q:1/4=205] ([^c^c']2 [=B=b]3[Q:1/4=105] [^A^a])[Q:1/4=175] (4:3:4(([Bb]2 [^B^b]2 [cc']2[Q:1/4=150] [^G^g]2) | %112
[Q:1/4=175] =b2[Q:1/4=225] a3[Q:1/4=150] ^g{^fg} f2[Q:1/4=170] .^e.f.g.a | %113
[Q:1/4=215] [=D=E^G=B]6[Q:1/4=200] [EG^c=e]4[Q:1/4=225] [DEGce]2 | %114
 [A,^CA]2) z2 ([A^ca]2[Q:1/4=200] [a^c'a']4 [^gc'^g']2 | [^f^c'^f']6 [=b^d'^g']4 [ad'g']2 | %116
 [=e^g=e']4) z2!8va(! [e'=e'']4- [e'e'']>[e'e''] | %117
[Q:1/4=185] [=e'=e'']2!8va)![Q:1/4=220] z2 z2[Q:1/4=230] [^F^f]6- | %118
 [Ff]2[Q:1/4=250] P[^F^f]2!<(! ([^E^e][Ff] [^G^g][^A^a][=B=b][^c^c'][dd']!<)![=e=e'] | %119
[Q:1/4=270] [^f^f']2) z2 z2 !>![^G^g]4 [Gg]2 | %120
 ^G!<(!^gag([^^F^^f][=Gg] [^A^a][^B^b][^c^c'][^d^d'][=e=e']!<)![^f^f'] | %121
 [^g^g']2) z2 z2 ([^Gg]4 [Gg]2 | %122
 P[^G^g]2!<(! [^^F^^f][Gg][Q:1/4=270][^A^a][=B=b] [^c^c'][^d^d'][Q:1/4=250][^e^e'][f^^f'][gg']!<)![^a^a'] | %123
[Q:1/4=290]!fff! [=b=b']2) ([^g'b']^e'^d'b [^gb]^e^d=B[^GB]^E) | %124
[K:bass][Q:1/4=280] (^D=B,[^G,B,]"_dim."^E,^D,=B,, [G,B,]E,D,B,,[_A,_C]=F,) | %125
[Q:1/4=370] (_B,_A,_CF,"_piu animato"B,A, CF,B,A,CF, |!<(! B,_A,_CF,B,A, CF,B,A,CF, | %127
 _B,_A,_CF,B,A, CF,B,A,C!<)!F, | B,_A,_CF,B,A, CF,B,A,CF, | %129
[K:treble][Q:1/4=350] B,2) (B,D_CD ^CFD_A=EA | F_cGc_Ad Bd_cd^cf | d_a=eaf_c' gc'ad'bd' | %132
!8va(! _c'd'^c'f'd'_a' =e'a'f'_c''g'c'' | b'_a'_c''f'b'a' =c''f'b'a'^c''f' | %134
 b'_a'd''f'b'a' e''f'b'a'=e''f' |[Q:1/4=320] f''d''^c''=e''_e''=c'' =b'e''^c''_b'a'c'' | %136
[Q:1/4=290] =b'_a'g'_b'a'f'!8va)![Q:1/4=230] d'_bab_ab | ^fg[Q:1/4=295]g'd'e'=b c'g_b_ag=f) | %138
[Q:1/4=320] (^fgg'd'e'=b c'g_b_ag=f) | (^fgg'd'e'=b c'g_b_ag=f) |[Q:1/4=265]!f! (e_afdaf cafBaf) | %141
[Q:1/4=320] (^fgg'd'e'=b c'g_b_ag=f) | (^fgg'd'e'=b c'g_b_ag=f) | (^fgg'd'e'=b c'g_b_ag=f | %144
 _fed_dc_c B=A=cBG_A) |!<(! (G_A=ABcB _AB=Bc_d!<)!c |!<(! =A_B=Bc=dc _Bc^cde!<)!d | %147
!<(! =Bc^cded =c^cde=e!<)!f |!>(! gf=e_ed_d c=B_B=AB!>)!_A |"_cresc." G2 B,BD_c B,BEG=E_d | %150
 CcFA=E_d CcFA^F_e | DdG=B^Fe DdGB^Gf | =E=eA^c^Ag ^F^fB^d^B(=a) | %153
[Q:1/4=200]!ff! [^c^fa^c']2)[Q:1/4=285]!<(! (^Bc^d^e f^ga=bc'!<)!^d' | %154
 ^e'^f'^g'a'f'^c' a^f^cA^F^C) |!<(! (A,^F_EAA^f eaa^f'f'!<)!a' | ^f'a'e'a^fa eA^FAEA,) | %157
[Q:1/4=130] [B,EGB]2[Q:1/4=400]"^leggiero" (A,!<(!B,CD E=EGFGF | cBABcd e=egfgf | %159
 c'babc'd' e'=e'g'f'g'!<)!f' |[Q:1/4=250] .b'2)[Q:1/4=400] (=abc'd' e'=e'g'f'g'f' | %161
 .b'2) z2 z!ff![Q:1/4=360]!8va(! (f' f'')=e''_e''d''c''b' | a'g'f'=e'_e'd'!8va)! c'bagf=e | %163
 _e_d_cB_A_G FE_D_CB,[I:staff +1]A, |[I:staff -1] z12 | %165
[Q:1/4=110] z6 (!>![B,DG]4[Q:1/4=220] [_A,DG]2[Q:1/4=250] | [G,E]2) z2 (!>![EGe]2- [EGe]4 [EBd]2 | %167
 [EBc]6 [FAd]4 [EAd]2) | [DB]2 z2 z2 ([Bb]4 [=B=b]2 | %169
[Q:1/4=245] (5:3:5c'2 _d'2 c'2 =b2 c'2) (c' _a'2) z2[Q:1/4=125] c' | %170
[Q:1/4=225] (5:3:5b2[Q:1/4=250] c'2 b2 =a2 b2 (b g'2) z2[Q:1/4=125] b | %171
[Q:1/4=225] (5:3:5(_a2[Q:1/4=250] b2!<(! a2 g2 a2) (a!<)! .f'2) z ([fa]2[Q:1/4=190] | %172
 [fg]2{/_b} !>![f_a]3[Q:1/4=180]!<(! [fg]) (.[eg]2 .[ea]2!<)! .[e=a]2 | %173
[Q:1/4=235] [_ABfb]6 [ABdgb]4 [ABdgb]2 | [Ge]2)[Q:1/4=250] z2 z2[Q:1/4=225] ([ege']4 [ebd']2 | %175
 [ebc']6 [fad']4 [ead']2 | [db]2) z2 z2 (!>![bb']4 z [bb'] | [bb']4) z2 (!>!c4 d2 | %178
[Q:1/4=195] T_e2 d2 e2[Q:1/4=125] g2 !>!g2- (3gfe x18 | %179
[Q:1/4=195] !>!e4) z2 z2"^con forza" (G_A[Q:1/4=165] (3Bdc | %180
"^ten."[Q:1/4=195] B4) z2 z2[Q:1/4=135] (3z (G_A[Q:1/4=150] (3Bdc | %181
"^ten."[Q:1/4=195] B6) z2[Q:1/4=135] (3z (F[Q:1/4=150]_A (3Bdc | %182
 B2) (3z[Q:1/4=130] (_DE[Q:1/4=150] (3GcB)[Q:1/4=165] _A3 (_CEF | %183
[Q:1/4=185] G2) z2 z2 z2 (3z"^sempre"[Q:1/4=130] (G_A!f![Q:1/4=150] (3Bdc | %184
[Q:1/4=185] .B)b .b'2 z2 z2[Q:1/4=130] (3z G_A[Q:1/4=150] (3Bdc | %185
[Q:1/4=195] .Bb .b'2 z2 z2[Q:1/4=130] (3z (F_A[Q:1/4=150] (3Bdc | %186
 B2) (3z[Q:1/4=130] (_DE[Q:1/4=150] (3GcB) _A3 (_CEF |[Q:1/4=170] G6-)!<(! (GGBgfe) | %188
 B6- BGB[Q:1/4=150]gf!<)!e | d6- (dBdbag |"_riten."[Q:1/4=140] d6-) dBdbag | %191
 dBdbag"_rall." dBd[Q:1/4=130]bag | d[Q:1/4=120]ac'b[Q:1/4=100]ge BGC[Q:1/4=65]DFE | %193
"_sempre"[Q:1/4=120] x6 z[Q:1/4=130] (CD"_sotto voce"^F[Q:1/4=160]BA | %194
[Q:1/4=140] G6)[Q:1/4=127] (d6 | c6) z[Q:1/4=130] (CD^F[Q:1/4=160]BA | %196
[Q:1/4=140] G6)[Q:1/4=127] (!>!=E6 | ^F6) z[Q:1/4=130] (=CDF[Q:1/4=160]BA | %198
[Q:1/4=140] G6)[Q:1/4=127]!<(! (d6 | =e6)!<)!!f! z[Q:1/4=130]!p!!<(! (B,^C=E[Q:1/4=160]A!<)!G | %200
 G6)!f! (=e6 | ^f6 =e4) z (f | ^f6 =e4) z (f |"_appassionato" ^f6 =e4) z (f | %204
[Q:1/4=150] a6[Q:1/4=125] g4)[Q:1/4=90] (a2 | %205
"_il piu" [Bdb]2)!f! z"_possibile"!8va(! ([d'b'].[_e'=c''].[d'b'][Q:1/4=130] .[c'a'].[bg'].[a^f'].[bg'] .[a=f'] z/ .[ge']/!8va)! | %206
[Q:1/4=115] .[ge'][Q:1/4=220].[^fd'].[ec'].[db].[ca].[Bg][Q:1/4=145]"^poco riten." (3(.[Af].[ce].[cd])[Q:1/4=100] x2 .[Bd]/.[Ad]/[Q:1/4=45].[cd]/.[Bd]/[Q:1/4=95] || %207
[M:2/2]"^Presto con fuoco."[Q:1/2=80]!ff! [=Gd]) z[Q:1/2=147]!8va(! (!>![d'g'b']a) z ([bd'g']!>![bd'g']^f)!8va)! | %208
 z ([gbd']!>![gbd']^c) z ([dgb]!>![dgb]B) | z ([egc']!>![egc']d) (^c=c!>![egc']d) | %210
 (^c=c!>![e^fc']d) (^c=c!>![dfa]c) | [Bdgb]2!8va(! (!>![d'g'b']a) z ([bd'g']!>![bd'g']^f)!8va)! | %212
 z ([gbd']!>![gbd']^c) z ([dgb]!>![dgb]B) | z ([egc']!>![egc']d) (^c=c!>![egc']d) | %214
 (^c=c!>![e^fc']d) (^c=c!>![dfa]c) | [Bdgb]2!mp! (_a[e'_a'] a!>![ea]G[eg] | %216
 !>!^F[=A^f]f[=a^f'] g[bg']g[Bg]) | (!>!_A[e_a]a[e'_a'] a!>![ea]G[eg]) | %218
 (^F[=A^f]f[=a^f'] g[bg']g[Bg]) | (=F[_A=f]f[_a=f'] f[Ae]E[Ae]) | (D[_Ad]d[_ad'] d[Ac]C[Ac]) | %221
!<(! (C[Ec]!>!c[ec'] !>!c[ec']!>!B[db]) |[Q:1/2=130] (!>!B[db]A[ca] G[Bg]^F[A^f])!<)! | %223
!ff![Q:1/2=150] .[GBg]2 (_a[e'_a'] a!>![ea]G[eg] | ^F[=A^f]f[=a^f'] g[bg']g[Ba]) | %225
 (!>!_A[e_a]a[e'_a'] a[ea]G[cg] | !>!^F[=A^f]f[=a^f'] g[bg']g[Bg]) | %227
!mf!"_cresc." (=F[_Af]f[_a=f'] f[Ge]E[Ge] | D[^Fd]d[^fd'] d[=E^c]^C[_Ec]) | %229
 (=C[_E=c]c[ec'] =B[e=b]c[ec'] | c[ec']e[_ge'] d[gd']e[ge'] | e[_ge']g[b_g'] f[_af']g!ff![__bg'] | %232
!8va(! ^f[a^f']a[c'a'] b[d'b']b[e'c''] | !>!c'[e'c'']b[d'b'] !>!b[d'b']a[c'a'] | %234
 !>!a[c'a']g[bg'] !>!g[bg']d[^fd']) | z b[d'b']b !>![_d'b']b!>![c'a']a | %236
 !>![c'a']a!>![bg']g !>![bg']g!>![^fd']d | z (d'[g'b'd'']d')!8va)! z2 (!>![gbd']d) | %238
 z2 (!>![GBd]D) z2 x2 | %239
[Q:1/2=150] z2[I:staff +1] (!>![G,B,=E]D,)[I:staff -1] z2[I:staff +1] (!>![G,B,E]D,) | %240
[I:staff -1] z2[I:staff +1] (!>![G,B,=E]D,)[I:staff -1] z2[I:staff +1] (!>![G,B,E]D,) | %241
[Q:1/2=125][I:staff -1] z4 (6:4:6!>!G,^G,A,B,=B,C | (6:4:6^CDE=EF^F (6:4:6G^GAB=B=c | %243
 (6:4:6^cde=ef^f (6:4:6g^gab=bc' |!8va(! (6:4:6^c'd'e'=e'f'^f'[Q:1/2=90] (6:4:6g'^g'a'b'=b'^c'' | %245
[Q:1/2=50] (29:8:29_e''d''f''e''d''c''=b'd''c''_b'a'g'^f'a'g'f'e'd'e'd'=f'e'd'c'!8va)!=bd'c'_ba | %246
 (39:16:39g/^f/a/g/f/e/d/e/d/=f/e/d/c/=B/d/c/_B/A/G/^F/E/D/[I:staff +1]C/B,/A,/G,/^F,/E,/D,/C,/B,,/A,,/G,,/^F,,/E,,/D,,/C,,/B,,,/A,,,/ | %247
[Q:1/2=150][I:staff -1] z8 |[Q:1/2=70] x8 | G z[Q:1/2=30] z2!p! z4 | z8!f!"^accel."[Q:1/2=60] | %251
 z8 |[Q:1/2=60] x8 | z8[Q:1/2=30]"_riten." | z4[Q:1/2=50] (6:4:6z!ff!"_accel." DGB[Q:1/2=60]ed | %255
 .d z z2!fff!"_poco riten."[Q:1/2=50]!8va(!{/=e''} (3[=e'e'']2[Q:1/2=60]{/_e''} [_e'e'']2{/d''} [d'd'']2 | %256
[Q:1/2=80]{/^c''} (3[^c'c'']2{/=c''} [=c'c'']2"_accel."{/=b'} [=bb']2[Q:1/2=95] (3[_b_b']2 [aa']2 [_a_a']2!8va)! | %257
[Q:1/2=130] (3[gg']2 [^f^f']2 [=f=f']2[Q:1/2=170] (3[=e=e']2 [_e_e']2[Q:1/2=180] [dd']2 | %258
 (3[^c^c']2 [=c=c']2 [=B=b]2 (3[_B_b]2 [Aa]2 [_A_a]2 |[Q:1/2=160] [Gg]4 z4 | %260
[Q:1/2=150]!8va(! [bd'g'b']8!8va)! |[Q:1/2=50] x8 |] %262
V:2
!f! C,4- C,E,_A,B, | C,_A,,E,B, C_A,[I:staff -1]EB |[I:staff +1] z8 |!p! z8 z | %4
 E>D =FE D!ped! D2 z2!ped-up! | z4!<(! ([E,G,C]4!<)! | !arpeggio![D,G,E]8) || %7
[M:6/4] z6!ped! D,,2 z2 z2!ped-up! |!ped! z2 (.G,,2 .G,,2) z2!ped! (.B,2 .B,2)!ped-up! | %9
 z2!ped! (.[A,C]2 .[A,C]2) z2!ped! D,,2 D,,2!ped-up! | %10
!ped! z2 (.G,,2 .G,,2)!ped-up!!ped! z2!ped-up! (.A,,2 .A,,2) | %11
!ped! z2 (.D,,2 .D,,2) z2!ped-up!!ped! (.D,2 .D,2)!ped-up! | %12
!ped! z2 (.G,,2 .G,,2)!ped-up!!ped! z2 (.=E2 .E2)!ped-up! | %13
!ped! z2 (.F2 .F2)!ped-up!!ped!!mp! z2 (.F,,2 .F,,2)!ped-up! | %14
!ped! z2 (.B,,2 .B,,2)!ped-up!!ped! z2 (.B,2 .B,2)!ped-up! | %15
!ped! z2 (.[A,C]2 .[A,C]2) z2!ped! (.D,,2 .D,,2)!ped-up! | %16
!ped! z2 (.G,,2 .G,,2) z2!ped-up!!ped! (.B,2 .B,2)!ped-up! | %17
!ped! z2 (.[A,C]2 .[A,C]2) z2 (.D,,2 .D,,2)!ped-up! | %18
!ped! z2 (.G,,2 .G,,2)!ped-up!!ped! z2 (.A,,2 .A,,2)!ped-up! | %19
!ped! z2 (.D,,2 .D,,2) z2!ped-up!!ped! (.D,2 .D,2)!ped-up! | %20
!ped! z2 (.G,2 .G,2)!ped-up!!ped! z2 (.G,,2 .G,,2)!ped-up! | %21
!ped! z2 C,4!ped-up!!ped! z2 D,4!ped-up! |!ped! z2 E,4!ped-up!!ped! z2 D,4!ped-up! | %23
!ped! (!>!=B,,C,D,C, G,2)!ped-up!!ped! (!>!^C,D,E,D, G,2)!ped-up! | %24
!ped! (!>!D,E,F,E,!<(! G,2)!ped-up!!ped!{^D,=E,} TE,6!ped-up!{=D,E,}!<)! | %25
!ped!!f! F,6-!ped-up!!ped! F,2 [=E,,=E,]2 [F,,F,]2!ped-up! | %26
!f!!f! [^F,,^F,]6- [F,,F,]2 [^E,,^E,]2 [F,,F,]2 | [G,,G,]12 | [D,,D,]12 | [E,,E,]12 | %30
 B,,,6 [D,,D,]6 | %31
!ped! [^C,,^C,]2!mp! (.[=E,A,=E]2 .[E,A,E]2 .[E,A,E]2 .[E,A,E]2!mp! .[E,A,E]2)!ped-up! | %32
!ped! ([=C,,=C,]2 [F,A,_EF]2 [F,A,EF]2 [F,A,EF]2 [F,A,EF]2 [F,A,EF]2)!ped-up! | %33
!ped! B,,2 [D,F,B,]2 [F,B,D]2!ped-up!!ped! E,,2 [E,G,=C]2 [G,CE]2!ped-up! | %34
!ped! (D,,2 [E,G,C]2 [B,D]4 [B,^C]2 [A,=C]2)!ped-up! | %35
!ped! .G,,2 (=F2 E2)!ped-up!!ped! .^F,,2 (E2 D2) | %36
!ped! .G,,2 (=F2 E2)!ped-up!!ped! .=F,,2 (E2 D2)!ped-up! | %37
!ped! .E,,2 (D2 C2)!ped-up!!ped! .C,,2 (_B,2 A,2)!ped-up! | %38
!ped! .D,,2 G,2 ^F,2!ped-up!!ped! .D,,2 (!>!A,2 !>!D,2)!ped-up! | %39
!ped! !>!B,,2 (=F2 [B,E]2)!ped-up!!ped! .[^F,,^F,]2 (E2 [A,D]2)!ped-up! | %40
!ped! .[G,,G,]2 (E2 [B,E]2)!ped-up!!ped! .[=F,,=F,]2 E2 [_A,=B,D]2!ped-up! | %41
!ped! .[E,,E,]2 (D2 [G,C]2)!ped-up!!ped! .[C,,C,]2 B,2 [E,=A,]2!ped-up! | %42
!ped! D,,2 [A,,G,]2 [C,^F,]2 D,,2 [A,,E,]2 ([=C,D,]2!ped-up! | %43
 [G,,D,]2) [G,,,G,,]2 z2 [G,,D,]2 E,D, z2 | %44
!ped!!f! ([G,,C,E,]6-!ped-up! [G,,C,E,]2 [G,,G,]2 [E,E]2) | .[D,B,]2 [G,,G,]4 [G,D]2 G,4 | %46
!ped! [G,CE]6- [G,CE]2 z4!ped-up! |!ped! z6[K:treble] (!>![E^FAe]2 d2 D2!ped-up! | %48
!ped! .G,2) D2!ped-up! d2!ped-up!!ped! (.[E^FAe]2 d2 D2 | %49
!ped! .G,2) z2[K:bass] (D,2 !>![E,^F,A,E]2 D2 D,2!ped-up! | %50
!ped! .G,,2) (D,2 D2!ped-up! !>![E,^F,A,E]2 D2 D,2) | %51
!ped! (G,,2 [D,B,]2) z2!ped-up! (!>![^C,,^C,]2 !>![D,,D,]2) z2 | %52
 !>![G,,,G,,]2 !>!D,2 z2 !>!^C,,2 !>!D,,2 z2 | %53
!ped! [G,C]B,D,[G,D]CE,!ped-up!!ped! [G,C]B,D,[G,D]CE, | %54
!ped! [G,C]B,D,[G,D]CE,!ped-up!!ped! [G,C]B,D,[G,D]CE,!ped-up! |!ped! x12!ped-up! | z12 | %57
!ped! x12!ped-up! |!ped! !>![^F,,,^F,,]6- [F,,,F,,]4 (D,,2!ped-up! | %59
!ped! !>![G,,,G,,]6) z2 .[D,G,]2 .[G,,D,]2!ped-up! | !>![D,G,]4 z2 z2 z2 (D,,2 | %61
 [_G,,,_G,,]6-)!ped! [G,,,G,,]4 (E,,2!ped-up! |!ped! F,,6-) F,,4 G,,2!ped-up! | %63
!ped! A,,4 z2 z2 ([CF]2 [F,C]2!ped-up! | [CF]6- [CF]4 [F,C]2) | %65
!ped! ([CF]6-!ped-up! [CF]4!mp! [F,C]2 | [CF]4 [F,C]2 [CF]2 [F,C]2) z2 | %67
!p!!ped! (B,,,2 B,,2 _A,2!ped-up!!ped! F,2 C2 B,2)!ped-up! | %68
!ped! (E,,2 B,,2 E,2 G,2 B,2 E2)!ped-up! |!ped! (C2 E2 F,2 E2!ped-up!!ped! G2 F2)!ped-up! | %70
!ped! (B,,2 F,2 B,2[K:treble] D2 F2 B2)!ped-up! |!ped! (C2 E2 F,2 B,2 D2 _A2)!ped-up! | %72
[K:bass]!ped! (B,2 D2 E,2!ped-up!!ped! _A,2 C2 G2)!ped-up! | %73
!ped! _A,2 C2 D,2!ped-up!!ped! G,2 =B,2 F2!ped-up! | %74
!ped! (G,2 C2 C,2!ped!!ped-up! F,2 =A,2 E2)!ped-up! | %75
!ped! (F,2 _A,2 B,,2!ped-up!!ped! A,2 C2 B,2) |!ped! (E,,2 B,,2 E,2 G,2 B,2 E2)!ped-up! | %77
!ped! (C2 E2 F,2!ped-up!!ped! E2 G2 F2)!ped-up! |!ped! (B,,2 F,2 B,2[K:treble] D2 F2 B2)!ped-up! | %79
[K:bass]!ped! (C,,2 =E2 B,2!ped-up!!ped! G,2 E2 B,2)!ped-up! | %80
!ped! (F,2 _E2 A,2) (B,,2!ped! D2 _A,2)!ped-up! |!ped! (E,,B,,G,E,B,G,!ped-up! E2) z2 z2 | %82
!ped! (E,,B,,_A,F,B,A, D2) z4!ped-up! |!ped! E,,B,,_A,F,B,A, D2 z2 z2!ped-up! | %84
!ped! (E,,B,, G,2) z2!ped-up!!ped! (E,,_C, _A,2) z2!ped-up! | %85
!ped! (E,,B,,G,E,!>!B,G, E2) z2 z2!ped-up! |!ped! (E,,B,,G,E,B,G, E2) z4!ped-up! | %87
!ped! (E,,B,,_A,F,B,A, D2) z2 z2!ped-up! | %88
!ped! (E,,B,, G,2) z2!ped-up!!ped! (E,,_C, _A,2) z2!ped-up! | %89
!ped! (E,,B,,G,E,!>!B,G, E2) z4!ped-up! |!ped! (G,,D,B,G,DB, G2) z2 z2!ped-up! | %91
!ped! (B,,F,D!ped-up!!ped!B,FD B2) z2 z2!ped-up! |!ped! (B,,A,[K:treble]FDAF) z2 z4!ped-up! | %93
[K:bass]!ped! =E,4 z2 z2!ped-up! z4 | z2!ped! (.=E,,2 .E,,2) z2 (.[=E,A,]2 .[E,A,]2)!ped-up! | %95
!ped! z2 (.[=E,A,]2 .[E,A,]2) z2!ped! (.=E,,2 .E,,2)!ped-up! |!ped! x6!ped-up! !>!^F,6 | %97
!ped! !>!^G,6 x2 x4!ped-up! | z2!ped! (.=E,,2 .E,,2) z2 (.[=E,A,C]2 .[E,A,C]2)!ped-up! | %99
 z2 (.[=E,A,]2 .[E,A,]2) z2!ped! (.=E,,2 .E,,2)!ped-up! | %100
 z2!ped! (.=E,,2 .E,,2)!ped-up! z2!f! (.[=E,A,C]2 .[E,A,C]2) | %101
!ped! z2 [=E,A,C]2 [E,A,C]2!ped! z2 [E,A,C]2 z2!ped-up! | %102
!ped! z2 [=E,A,C]2 [E,A,C]2!ped-up!!ped! z2 [E,A,C]2 z2!ped-up! | %103
!ped! z2 [=E,A,C]2 [E,A,C]2!ped-up!!ped! z2 [E,A,C]2 z2!ped-up! | %104
!ped! z2 [=E,A,C]2 [E,A,]2!ped-up! z2 [E,A,C]2 [E,A,C]2 | %105
!ped! [=E,,,=E,,]2 [=E,^G,D]2 [G,D=E]2 [=B,D^G]2 [G,DE]2 [E,G,D]2!ped-up! | %106
!ped! [A,,,A,,]2 [=E,^C]2 [A,=E]2 [CA]2 [A,E]2 [E,C]2!ped-up! | %107
!ped! [=B,,,=B,,]2 [^F,=B,]2 [A,^D]2 [B,^F]2 [A,D]2 [F,B,]2!ped-up! | %108
!ped! [=E,,=E,]2 [E,=B,]2 [^G,=E]2 [B,^G]2 [G,E]2 [E,B,]2!ped-up! | %109
!ped! [^F,,^F,]2 [F,D]2 [A,A]2!ped! [=B,,,=B,,]2 [F,D]2 [=B,A]2!ped-up! | %110
!ped! [=E,,=E,]2 [E,^C]2 [^G,^G]2!ped-up!!ped! [A,,,A,,]2 [E,C]2 [A,G]2!ped-up! | %111
!ped! [D,,D,]2 [=D,=B,]2 [^F,^F]2!ped-up!!ped! [^C,,^C,]2 [^G,^C]2 [B,^E]2 | %112
!ped! [^F,,,^F,,]2 ^C2 [A,^F]2!ped-up!!ped! [=B,,,=B,,]2 =B,2 [A,^D]2!ped-up! | %113
!ped! [=E,,,=E,,]2 [=B,,^G,]2 [=E,=B,]2 [G,D]2 [E,B,]2 [B,,G,]2!ped-up! | %114
!ped! [A,,,A,,]2 [=E,^C]2 [A,=E]2 [CA]2 [A,E]2 [E,C]2!ped-up! | %115
!ped! [=B,,,=B,,]2 [^F,=B,]2 [A,^D]2 [B,^F]2 [A,D]2 [F,B,]2!ped-up! | %116
!ped! [=E,,=E,]2 [E,=B,]2 [^G,=E]2 [B,^G]2 [G,E]2 [E,B,]2!ped-up! | %117
!ped! [^F,,=E,]2 [E,^A,]2 [^F,^C]2 [A,=E]2 [F,C]2 [E,A,]2!ped-up! | %118
!ped! [=E,,,=E,,]2 [=E,^A,]2 [F,^C]2 [A,=E]2 [F,C]2 [E,A,]2!ped-up! | %119
!ped! [=E,,=E,]2 [E,^B,]2 [^G,^D]2!ped-up! [B,^F]2 [G,D]2 [E,B,]2 | %120
!ped! [=E,,,=E,,]2 [=E,^B,]2 [^G,^D]2 [B,^F]2 [G,D]2 [E,B,]2!ped-up! | %121
!ped! [=E,,=E,]2 [E,^C]2 [^G,=E]2!ped-up!!ped! [^D,,^D,]2!ped-up! [D,=B,]2 [G,^D]2 | %122
!ped! [^C,,^C,]2 [C,^G,]2 [=E,^C]2!ped-up!!ped! [^G,,,^G,,]2 [=B,,G,]2 [^D,=B,]2!ped-up! | %123
!ped! [^E,,,^E,,]2 z2 z2 !arpeggio![^E,=B,^D^G]4 z2!ped-up! | z12 | %125
 (_B,,,2 D,2) z2 (B,,,2 D,2) z2 | (B,,,2 D,2) z2 (B,,,2 D,2) z2 | (!>!D,2 F2) z2 (!>!D,2 F2) z2 | %128
 (!>!D,2 F2) z2 (!>!D,2 !>!F2) z2 |!ped! B,,,2 z2 z2 [D,A,_C]2 z2 z2!ped-up! | %130
 [F,_A,D]2 z2 z2 [A,DF]2 z2 z2 |[K:treble] [B,F_A]2 z2 z2 [FAd]2 z2 z2 | [_Adf]2 z2 z2 [Bf_a]2 z4 | %133
 [f_ad']12- | [fad']6 [e_ac']6 | [e_ac']6 [dab]2 z4 | z12 | %137
!ped! .c2[K:treble] (c2 B2)!ped-up!!ped![K:bass] .B,,2[K:treble] (=A,2 B,2)!ped-up! | %138
[K:bass]!ped! .E,2[K:treble] (c2 B2)!ped-up!!ped![K:bass] .B,,2[K:treble] (=A,2 B,2)!ped-up! | %139
[K:bass]!ped! .E,2[K:treble] (_A2 G2)!ped-up!!ped![K:bass] .B,,2[K:treble] (G2 F2)!ped-up! | %140
!ped! G2 (c'2 b2)!ped-up!!ped! G2 (a2 g2)!ped-up! | %141
!ped! .c2 (c2 B2)!ped-up!!ped![K:bass] .B,,2[K:treble] (=A,2 B,2)!ped-up! | %142
[K:bass]!ped! .E,2[K:treble] (c2 B2)!ped-up!!ped![K:bass] .B,,2[K:treble] (=A,2 B,2)!ped-up! | %143
[K:bass]!ped! .E,2[K:treble] (=f2 e2)!ped-up!!ped![K:bass] ._A,,2[K:treble] (G2 F2)!ped-up! | %144
[K:bass]!ped! .B,,2 z2 [F,_A,=D]2!ped-up! [F,A,D]2 [F,A,D]2 [F,A,D]2 | %145
 [E,B,_D]2 z [E,,E,] [E,,E,]2 [_A,C]2 [G,,G,]2 [_G,,_G,]2 | %146
 [=A,E]2 z [F,,F,] [F,,F,]2 [_B,D]2 [A,,A,]2 [_A,,_A,]2 | %147
 [=B,F]2 z [G,,G,] [G,,G,]2 [=CE]2 !>![C,,C,]2 z2 | [_A,_E]2 !>!_C,2 z2 [A,=D]2 !>!B,,2 z2 | %149
 [E,,E,]2 [G,,G,]2 [_A,,_A,]2 [G,,G,]2 [E,,E,]2 [B,,B,]2 | %150
 [=A,,=A,]2 [F,,F,]2 [B,,B,]2 [A,,A,]2 [F,,F,]2 [C,C]2 | %151
 [=B,,=B,]2 [G,,G,]2 [C,C]2 [B,,B,]2 [G,,G,]2 [D,D]2 | %152
 [B,,^C]2 [A,,A,]2 [=E,=E]2 [^D,^D]2 [=B,,=B,]2 [=D,=E]2 | %153
!ped! [^C,,^C,]2[K:treble] z ([A,^C^FA] .[A,CFA]2!ped-up! .[A,CFA]2 .[A,CFA]2 .[A,CFA]2) | %154
 [A,^C^FA]6 z2 z2[K:bass] [^C,,^C,]2 | %155
 [^B,,,^B,,]2 z ([^F,A,^D] [F,A,D]2 [F,A,D]2) z2 ([=C,,=C,]2 | %156
 [_C,,_C,]2) z ([_G,A,E] [G,A,E]2 [G,A,E]2) z2 [C,,C,]2- | %157
 [C,,C,]2 z2 z2 z2 ([A,=C_E]2 [_A,B,=D]2 | [G,B,E]2) z2 z2 z2[K:treble] ([Ac_e]2 [_ABd]2 | %159
 [GBe]2) z2 z2 z2 ([ac'_e']2 [_abd']2 | [gbe']2) z2 z2 z2 ([ac'_e']2 [_abd']2 | %161
 [gbe']2) z2 z2!ped! [CEF=A]2 z2 z2!ped-up! | z12 |!ped![K:bass] [_C,E,_A,E]2 z2 z2!ped-up! z6 | %164
 _G,F,E,_D,_C,B,, _A,,_G,,F,,E,,_D,,_C,, | %165
!ff!!ped! (!>!B,,,F,,B,,=D,B,,F,,!ped-up! B,,,F,,B,,F,B,,F,,) | %166
!ped! (E,,B,,E,G,E,B,,) (E,,C,E,B,E,C,)!ped-up! | %167
!ped! (F,,C,E,B,E,C,)!ped-up!!ped! (F,,C,E,A,E,C,)!ped-up! | %168
!ped! (B,,F,B,DB,F,) (B,,F,B,FB,F,)!ped-up! | %169
!ped! (B,,G,C=ECG,)!ped-up!!ped! (B,,_A,CFCA,)!ped-up! | %170
!ped! (B,,F,_A,DA,F,)!ped-up!!ped! (B,,E,G,EG,E,)!ped-up! | %171
!ped! (B,,E,_A,CA,E,)!ped-up!!ped! (B,,F,A,DA,F,)!ped-up! | %172
!ped! (=B,,F,G,DG,F,)!ped-up!!ped! (C,E,G,E_G,E,)!ped-up! | %173
!ped! (D,_A,B,FB,A,)!ped-up!!ped! (B,,F,B,DB,F,)!ped-up! | %174
!ped! (E,,B,,E,G,B,E GEB,G,E,B,,)!ped-up! | %175
!ped! (F,,C,E,B,E,C,)!ped-up!!ped! (F,,C,E,A,E,C,)!ped-up! | %176
!ped! (B,,,B,,F,B,DF[K:treble] dBFD[K:bass]B,F,)!ped-up! | %177
!ped! (B,,=E,G,CG,E,) (B,,E,G,CG,E,)!ped-up! | %178
!ped! (B,,F,=A,CA,F,)!ped-up!!ped! (B,,F,_A,DA,F,)!ped-up! x18 | %179
!ped! (E,,B,,E,G,E,B,, E,,B,,E,B,E,B,,!ped-up! |!ped! E,,B,,E,G,E,B,, E,,B,,E,B,E,!ped-up!B,, | %181
!ped! E,,B,,D,_A,D,B,, E,,B,,D,B,!ped-up!D,B,, | %182
!ped! E,,B,,E,G,E,B,,)!ped-up!!ped! (E,,_C,E,_A,E,!ped-up!C,) | %183
!ped! (E,,B,,E,G,E,B,, E,,B,,E,B,E,B,,!ped-up! |!ped! E,,B,,E,G,E,B,, E,,B,,E,B,E,!ped-up!B,,) | %185
!ped! (E,,B,,D,_A,D,B,, E,,B,,D,B,D,!ped-up!B,, | %186
!ped! E,,B,,E,G,E,B,,)!ped-up!!ped! (E,,_C,E,_A,E,!ped-up!C,) | %187
!ped! (E,,B,,E,G,E,B,, E,,B,,E,B,E,B,,!ped-up! |!ped! E,,B,,E,G,E,B,, E,,B,,E,B,E,B,,)!ped-up! | %189
!ped! (G,,D,G,B,DB, GDB,G,D,G,,!ped-up! | %190
!ped! G,,,G,,D,G,B,D[K:treble] BGD[K:bass]B,G,D,)!ped-up! |!ped! (G,,D, D2)"^dim." z2 z6!ped-up! | %192
 z12 |!ped!"^Meno mosso."!p! D,6!ped-up! x2 x2 x2 |!ped! x6 D6!ped-up! | %195
!ped! C6 x2!ped! x4!ped-up! |!ped! x6!ped-up!!ped! x2!ped-up! [G,B,^C]2 [G,B,C]2 | %197
!ped! z2 (.[^F,A,D]2 .[F,A,D]2) x2!ped! x2 x2!ped-up! |!ped! x6 (D6!ped-up! | %199
!ped! =E6) x2!ped! x4!ped-up! |!ped! z2 z4!ped-up!!ped! (!>!=E6!ped-up! | %201
!ped! !>!^F6 !>!=E4)!ped!!ped-up! z (F |!ped! !>!^F6 !>!=E4)!ped!!ped-up! z (F!ped-up! | %203
!ped! !>!^F6 !>!=E4)!ped!!ped-up! z (F!ped-up! |!ped! !>!A6 G4)!ped!!ped-up! A2!ped-up! | %205
!ped! [D,,,D,,]2 ([D,B,]2 [G,D]2 [B,G]2 [G,D]2 [D,B,]2)!ped-up! | %206
!ped! [D,,,D,,]2 ([D,^F,C]2 [F,CD]2 [C^F]2 [F,CD]2!ped-up! [D,F,C]2 || %207
[M:2/2]!ped! [G,,,G,,]2) z2 [B,DG]2 .B,,2!ped-up! | %208
!ped! [B,DG]2 .D,2!ped-up!!ped! [B,DG]2 .G,2!ped-up! |!ped! [A,=CEG]2 .A,,2!ped-up! [CEG]2 .A,2 | %210
 [=CD^F]2 .D,2 [=CDF]2 .A,2 |!ped! [G,DG]2 .G,,2 [B,DG]2 .B,,2!ped-up! | %212
!ped! [B,DG]2 .D,2!ped-up!!ped! [B,DG]2 .G,2!ped-up! |!ped! [A,=CEG]2 .A,,2!ped-up! [CEG]2 .A,2 | %214
 [=CD^F]2 .D,2 [=CDF]2 .A,2 |!ped! [G,DG]2 (C,4 [_A,E]2!ped-up! | %216
!ped! D,2) [=A,CD]2!ped-up!!ped! G,,2 [G,B,D]2!ped-up! |!ped! z2 [_A,E]4 [A,E]2!ped-up! | %218
!ped! D,2 [=A,CD]2!ped-up!!ped! G,,2 .[G,B,D]2!ped-up! | %219
!ped! .=B,,2 [F,_A,D]2!ped-up!!ped! z2 [E,A,C]2!ped-up! | %220
!ped! z2 [F,_A,=B,]2!ped!!ped-up! z2 A,2!ped-up! |!ped! ^F,,2 [^F,CE]2!ped-up! [G,B,D]2 G,,2 | %222
!ped! C,2 [A,EG]2!ped-up! z2 [A,D]2 | [G,B,D]2!ped! C,4 [_A,E]2!ped-up! | %224
!ped! .D,2 [=A,CD]2!ped!!ped-up! .G,,2 [G,B,D]2!ped-up! |!ped! z2 [_A,E]6!ped-up! | %226
!ped! D,2 [=A,CD]2!ped-up!!ped! G,,2 [G,B,D]2!ped-up! | %227
 .[=B,,,=B,,]2 [F,_A,D]2 .[C,,C,]2 [E,G,C]2 | .[D,,D,]2 [^F,=A,]2 .[=E,,=E,]2 G,2 | %229
 .[^F,,^F,]2 [F,=C_E]2 [G,CE]2 .[G,,G,]2 | .[_A,,_A,]2 [A,EG]2 [=A,EG]2 .[=A,,A,]2 | %231
 .[B,,B,]2 [B,E_G]2 [_CE=A]2 .[=B,,=B,]2 |!ped! x8[K:treble]!ped-up! | %233
!ped![K:bass] [B,,B,]2[K:treble] [G,DG]2!ped-up!!ped![K:bass] [E,C]2[K:treble] [A,EG]2!ped-up! | %234
!ped![K:bass] [D,D]2[K:treble] [DGB]2!ped-up!!ped![K:bass] [C,C]2[K:treble] [CD^FA]2!ped-up! | %235
!ped![K:bass] [B,,B,]2[K:treble] [G,DG]2!ped-up!!ped![K:bass] [C,C]2[K:treble] [A,EG]2!ped-up! | %236
!ped![K:bass] [=D,=D]2[K:treble] [DGB]2!ped-up!!ped![K:bass] [C,C]2[K:treble] [CD^FA]2!ped-up! | %237
[K:bass]!ped! [B,,B,]2 z2[K:treble] !>![gbd']d z2 | %238
 !>![GBd]D z2[K:bass] (!>![G,B,D]D,) z2!ped-up! | %239
!ped! (!>![^F,,,^F,,][G,,,G,,]) z2 (!>![^C,,^C,][D,,D,]) z2!ped-up! | %240
!ped! (!>![^F,,,^F,,][G,,,G,,]) z2 (!>![^C,,^C,][D,,D,]) z2!ped-up! | !>![D,,,D,,]8 | %242
 z4 !>![G,_B,^C=E]3 [G,B,CE] | [G,B,^C^F]4 [G,B,C=E]3 [G,B,CE] | [G,B,^C^F]4 [G,B,C=E]4 | %245
!ped! G8!ped-up! |!ped! x8!ped-up! | !>!G,,,8- | %248
 (21:16:21G,,,/!ped!A,,,/B,,,/C,,/D,,/=E,,/^F,,/G,,/A,,/B,,/C,/D,/=E,/^F,/G,/A,/B,/C/[I:staff -1]D/_E/^F/!ped-up! | %249
[I:staff +1] x z z2"^riten."!ped! ([D,G,B,]3 [D,G,B,] | [D,G,B,]4)!ped-up! (6:4:6z (D,G,A,CB, | %251
 .B,) z z2!ped! !>!B,,4- | %252
 (28:16:28(B,,/C,/D,/=E,/^F,/G,/A,/ B,/[I:staff -1]C/D/E/^F/G/A/!ped-up!!ped!B/c/d/=e/^f/[I:staff +1][K:treble][I:staff -1]g/!8va(!a/b/c'/d'/=e'/^f'/g'/a'/!ped-up! | %253
 b')!8va)![I:staff +1] z z2[K:bass]!p!!ped! ([D,G,B,D]3 [D,G,B,D] | [D,G,B,D]4)!ped-up! z x x2 | %255
 D z z2{/B,,,} (3[B,,,B,,]2{/=B,,,} [B,,,=B,,]2{/C,,} [C,,C,]2 | %256
{/^C,,} (3[C,,^C,]2{/D,,} [D,,D,]2{/^D,,} [D,,^D,]2 (3[=E,,=E,]2 [F,,F,]2 [^F,,^F,]2 | %257
 (3[G,,G,]2 [^F,,^F,]2 [=F,,=F,]2 (3[=E,,=E,]2 [_E,,_E,]2 [D,,D,]2 | %258
 (3[^C,,^C,]2 [=C,,=C,]2 [=B,,,=B,,]2 (3[_B,,,_B,,]2 [A,,,A,,]2 [_A,,,_A,,]2 |!ped! [A,,,G,,]4 z4 | %260
 [G,DG]8 | !fermata!G,8!ped-up! |] %262
V:3
 C,,4- C,,E,,_A,,B,, | x8 | x8 | x9 | x9 | x8 | x8 ||[M:6/4] x12 | x12 | x12 | x12 | x12 | x12 | %13
 x12 | x12 | x12 | x12 | x12 | x12 | x12 | x12 | x2 (.C,,2 .G,2) x2 (.D,,2 .G,2) | %22
 x2 (.E,,2 .G,2) x2 (.D,,2 .G,2) | x12 | x12 | x12 | x12 | x12 | x12 | x12 | x12 | x12 | x12 | %33
 x12 | x4 G,2 D,6 | x2 [G,B,]4 x2 [^F,A,]4 | x2 [G,B,]4 x2 [=F,_A,=B,]4 | x2 [E,G,]4 x2 E,4 | %38
 x2 [D,C]4 x2 z4 | x2 G,4 x2 ^F,4 | x2 G,4 x2 F,4 | x2 E,4 x2 C,4 | x12 | x8 G,,4 | %44
 z2 !>!A,4- A,2 x4 | x12 | x12 | x6[K:treble] x6 | x2 D4 x6 | x4[K:bass] x8 | x2 D,4 x6 | x12 | %52
 x12 | [G,,,G,,]2 z2 (=C,,2 [G,,,G,,]2) z2 (C,,2 | [G,,,G,,]2) z2 (=C,,2 [G,,,G,,]2) z2 C,,2 | %55
 !>![G,,,G,,]6 z2 .[DG]2 .[G,D]2 | !>![DG]4 z2 z2 z2 D,,2 | !>![G,,,G,,]6- [G,,,G,,]4 D,,2 | x12 | %59
 x12 | x12 | x12 | F,,,12- | F,,,4 z8 | x12 | x12 | x12 | x12 | x12 | x12 | x6[K:treble] x6 | x12 | %72
[K:bass] x12 | x12 | x12 | x12 | x12 | x12 | x6[K:treble] x6 |[K:bass] x6 G,6 | F,6 x6 | x12 | %82
 x12 | x12 | x12 | x12 | x12 | x12 | x12 | x12 | x12 | x12 | x2[K:treble] x10 | %93
[K:bass] z2!pp! (.=E,,2 .E,,2) z2 (.E,,2 .E,,2) | x12 | x12 | z2 =E,,2 E,,2 z2 E,,2 E,,2 | %97
 z2 (.=E,,2 .E,,2) z2 (.E,,2 .E,,2) | x12 | x12 | x12 | x12 | x12 | x12 | x12 | x12 | x12 | x12 | %108
 x12 | x8 D4 | x8 ^C4 | x12 | x2 ^F,4 x2 F,4 | x12 | x12 | x12 | x12 | x12 | x12 | x12 | x12 | %121
 x12 | x12 | x12 | x12 | x12 | x12 | x12 | x12 | x12 | x12 |[K:treble] x12 | x12 | x12 | x12 | %135
 x12 | x12 | x2[K:treble] [EG]4[K:bass] x2[K:treble] [D_A]4 | %138
[K:bass] x2[K:treble] [EG]4[K:bass] x2[K:treble] [D_A]4 | %139
[K:bass] x2[K:treble] [B,E]4[K:bass] x2[K:treble] [_A,C]4 | x2 [d_f]4 x2 [df]4 | %141
 x2 [EG]4[K:bass] x2[K:treble] [D_A]4 |[K:bass] x2[K:treble] [EG]4[K:bass] x2[K:treble] [D_A]4 | %143
[K:bass] x2[K:treble] [GB]4[K:bass] x2[K:treble] [_A,C]4 |[K:bass] x12 | x12 | x12 | x12 | x12 | %149
 x12 | x12 | x12 | x12 | x2[K:treble] x10 | x10[K:bass] x2 | x12 | x12 | x12 | x8[K:treble] x4 | %159
 x12 | x12 | x12 | x12 |[K:bass] x12 | !>!_C,,2 z2 z2 z6 | x12 | x12 | x12 | x12 | x12 | x12 | %171
 x12 | x12 | x12 | x12 | x12 | x6[K:treble] x4[K:bass] x2 | x12 | x30 | x12 | x12 | x12 | x12 | %183
 x12 | x12 | x12 | x12 | x12 | x12 | x12 | x6[K:treble] x3[K:bass] x3 | x12 | x12 | %193
 z2 (.D,,2 .D,,2) z2 (.D,,2 .D,,2) | z2 (.D,,2 .D,,2) z2 (.[D,G,]2 .[D,G,]2) | %195
 z2 (.[D,G,]2 .[D,G,]2) z2 (.D,,2 .D,,2) | z2 (.D,,2 .D,,2) z2 (.D,,2 .D,,2) | %197
 x2 (.D,,2 .D,,2) z2 (.D,,2 .D,,2) | z2 (.D,,2 .D,,2) z2 (.[D,G,B,]2 .[D,G,B,]2) | %199
 z2 (.[D,G,B,]2 .[D,G,B,]2) z2 (.D,,2 .D,,2) | x2 (.D,,2 .D,,2) z2 (.[D,G,B,]2 .[D,G,B,]2) | %201
 z2 (.[D,G,B,]2 .[D,G,B,]2) z2 .[D,G,B,]2 z2 | z2 (.[D,G,B,]2 .[D,G,B,]2) z2 .[D,G,B,]2 z2 | %203
 z2 (.[D,G,B,]2 .[D,G,B,]2) z2 .[D,G,B,]2 z2 | z2 (.[B,^C=E]2 .[B,CE]2) z2 .[B,CE]2 z2 | x12 | %206
 x12 ||[M:2/2] x8 | x8 | x8 | x8 | x8 | x8 | x8 | x8 | z2 !>!C,6 | x8 | C,8 | x8 | x4 C,4 | %220
 D,4 E,4 | x8 | x4 D,4 | z2 !>!C,6 | x8 | C,4 D,2 E,2 | x8 | x8 | x8 | x8 | x8 | x8 | %232
 [=C,=C]2[K:treble] !>![CD^FA]4 [CDFA]2 |[K:bass] x2[K:treble] x2[K:bass] x2[K:treble] x2 | %234
[K:bass] x2[K:treble] x2[K:bass] x2[K:treble] x2 | %235
[K:bass] x2[K:treble] x2[K:bass] x2[K:treble] x2 | %236
[K:bass] x2[K:treble] x2[K:bass] x2[K:treble] x2 |[K:bass] x4[K:treble] x4 | %238
 x4[K:bass] x2 (!>![G,B,D]E,) | x8 | x8 | x8 | x8 | x8 | x8 | [D,A,=C]8- | [D,A,C^F]8 | x8 | %248
 (21:16:21z/ A,,/B,,/C,/D,/=E,/^F,/G,/A,/B,/C/[I:staff -1]D/=E/^F/G/A/B/c/d/=e/^f/ | %249
 x4[I:staff +1] ([G,,,G,,]3 [G,,,G,,] | [G,,,G,,]4) (6:4:6z (D,,G,,A,,C,B,, | .B,,) z z2 G,,,4- | %252
 (28:16:28(G,,,/A,,,/B,,,/C,,/D,,/=E,,/^F,,/ G,,/A,,/B,,/C,/D,/=E,/^F,/G,/A,/B,/C/D/[K:treble]=E/!8va(!^f/g/a/b/c'/d'/=e'/^f'/ | %253
 g')!8va)! z z2[K:bass] ([G,,,G,,]3 [G,,,G,,] | [G,,,G,,]4) x2/3 (6:4:3D,G,B, x2/3 (6:4:1D | x8 | %256
 x8 | x8 | x8 | x8 | x8 | !fermata![G,,,G,,]8 |] %262
V:4
 x8 | x8 | cGB_A G2 ^F z | z ^FGF ^EF AG_E | x9 | x8 | x8 ||[M:6/4] x7 C4 x | %8
 z2 (.[B,D]2 .[B,D]2) z2 (.[DG]2 .[DG]2) | z2 (.[EG]2 .[EG]2) x !>!C4 x | %10
 z2 (.[B,D]2 .[B,D]2) z2 (.[G,A,^C]2 .[G,A,C]2) | z2 (.[^F,A,D]2 .[F,A,D]2) z !>!C4 x | %12
 z2 (.[B,D]2 .[B,D]2) x2 (.[GB_d]2 .[GBd]2) | z2 (.[Bc]2 .[Bc]2) !>!E6 | %14
 z2 (.[EFA]2 .[EFA]2) z2 (.[DFB]2 .[DFB]2) | z2 ([EG]2 [EG]2) x !>!C4 x | %16
 z2!p! (.[B,D]2 .[B,D]2) z2 (.[DG]2 .[DG]2) | z2 (.[EG]2 .[EG]2) x !>!C4 x | %18
 z2 (.[B,D]2 .[B,D]2) z2 (.[G,A,^C]2 .[G,A,C]2) | z2 (.[^F,A,D]2 .[F,A,D]2) z !>!C4 x | %20
 z2 (.[=B,D=F]2 .[B,DF]2) z2 (.[FG=Bd]2 .[FGBd]2) | z2 (.[Gce]2 .[Gce]2) z2 (.[DG]2 .[DG]2) | %22
 z2 (.[CG]2 .[CG]2) z2 (.[B,D]2 .[B,D]2) | z2 (.[Gce]2 .[Gce]2) z2 (.[DG]2 .[DG]2) | %24
 z2 (.[CG]2 .[CG]2) z2 (.[B,^C]2 .[B,C]2) | z2 (.[B,D]2 .[B,D]2) z2 (.[DFB]2 .[DFB]2) | %26
 [_EA]2 [EA]2 [EA]2 [EA]2 [_EA]2 [EA]2 | z2!mf! [E_B]2 [EB]2 [DB]2 [DB]2 [DB]2 | %28
 [C^F]2 [CF]2 [CF]2 [CF]2 [CF]2 [CF]2 | z2!>(! [C=G]2 [CG]2 [B,G]2!>)! [B,G]2 [B,G]2 | %30
 [EG]2 [EG]2 [EG]2 [D^F]2 [DF]2 [DF]2 | x x x10 | x12 | x12 | x12 | x12 | x12 | x12 | %38
 x8 (!>!E!>!D^C!>!=C) | x2 !>![Bb]4 x2 !>![Aa]4 | x2 !>![Bb]4 x2 !>![_A_a]4 | %41
 x2 !>![Gg]4 x2 !>![Cc]4 | x2 !>![Ee]4 x2 !>![^F,^F]4 | x12 | x12 | x8 ED z2 | %46
 z2 A4 A2 [G,G]2 [Ee]2 | !>![Gd]2 x!8va(! x9 | x12 | x11!8va)! x | x12 | x12 | x12 | x12 | x12 | %55
 x10!8va(! x2 | x3!8va)! x9 | x12 | x12 | x10!8va(! x2 | x3!8va)! x9 | x12 | x12 | x10!8va(! x2 | %64
 x2!8va)! x10 | x12 | x12 | x6 D6 | E6 x6 | x6 A6 | B6 b4 b2 | x12 | x12 | x12 | x8 =Bcde | %75
 x6 G4 G2 | E6 x6 | x6 A6 | B6 !>!b4 b2 | x12 | x12 | x12 | x12 | x12 | x9 _C2 x | x12 | x12 | %87
 x12 | x9 _C2 x | x12 | x12 | x12 | x6 d x5 | x7 D4 x | z2 (.[C=E]2 .[CE]2) z2 (.A2 .A2) | %95
 D6 x D4 x | z2 (.[C=E]2 .[CE]2) z2 (.[A,CE]2 .[A,CE]2) | x2 [=B,=E]2 [B,E]2 x2 E3 x | %98
 z2 (.[C=E]2"_m.g."!<(! .[CE]2) z2 (.[Ac]2 .[Ac]2)!<)! | z2 (.[=EAc]2 .[EAc]2) x2 E2 x2 | %100
 z2 (.[C=E]2"_m.g." .[CE]2) z2 (.[EAc]2 .[EAc]2) | ^G6 ^F4 z z | ^G6 ^F4 z G | ^G6 ^F4 z G | %104
 A6 ^G4 x2 | x12 | x12 | x12 | x12 | ^g12 | a12 | ^f6 ^e6 | %112
 !>!=B2 A4 [AB^d]2 [ABd][ABd][ABd][ABd] | x12 | x12 | x12 | x6!8va(! x6 | x2!8va)! x10 | x12 | %119
 x12 | ^G4 x8 | x12 | x12 | x12 |[K:bass] x12 | x12 | x12 | x12 | x12 |[K:treble] x12 | x12 | x12 | %132
!8va(! x12 | x12 | x12 | x12 | x6!8va)! x6 | x12 | x12 | x12 | e2 x d2 x c2 x B2 x | x12 | x12 | %143
 x12 | x12 | x12 | x12 | x12 | x12 | x8 E2 =E2 | x2 F2 =E2 x2 F2 ^F2 | x2 G2 ^F2 x2 G2 ^G2 | %152
 x2 A2 ^A2 x2 B2 ^B2 | x12 | x12 | x12 | x12 | x12 | x12 | x12 | x12 | x5!8va(! x7 | x6!8va)! x6 | %163
 x12 | x12 | x12 | x12 | x12 | x12 | (5:3:5c2 _b2 =e2 _b2 e2 (_a a2) z2 _e | %170
 (5:3:5d2 _a2 d2 _a2 d2 (g g2) z2 d | (5:3:5c2 e2 c2 e2 c2 (f f2) x3 | z12 | x12 | x12 | x12 | %176
 x12 | x6 .C2 z2 .D2 | ._E2 .D2 .E2 (4:3:5(.G2 ._A2 .B2 .A2) x24 | !>!G4 x8 | x12 | x12 | %182
 x2 (3:2:2x _D2 x5 _C2 x | x12 | x12 | x12 | x9 _C2 x | x12 | x12 | x12 | x12 | x12 | x12 | %193
 x7 !>!C4 x | z2 (.[B,D]2 .[B,D]2) z2 (.G2 .G2) | z2 (.[EG]2 .[EG]2) x C4 x | %196
 z2 (.[B,D]2 .[B,D]2) z2 x4 | z2 x5 C4 x | z2 (.[B,D]2 .[B,D]2) z2 (.[GB]2 .[GB]2) | %199
 z2 (.[GB]2 .[GB]2) x B,4 x | z2 (.[B,^C=E]2 .[B,CE]2) z2 (.[GB^c]2 .[GBc]2) | %201
 z2 (.[GB^c]2 .[GBc]2) z2 .[GBc]2 z2 | z2 (.[GB^c]2 .[GBc]2) z2 .[GBc]2 z2 | %203
 z2 (.[GB^c]2 .[GBc]2) z2 .[GBc]2 z2 | z2 (.[B^c=e]2 .[Bce]2) z2 .[Bce]2 z2 | x3!8va(! x9!8va)! | %206
 x8 (5:4:5.[=Bd]/.[_Bd]/.[Ad]/.[^Gd]/.[Ad]/ x2 ||[M:2/2] x2!8va(! x6!8va)! | x8 | x8 | x8 | %211
 x2!8va(! x6!8va)! | x8 | x8 | x8 | x2 _a2 x2 G2 | ^F2 x2 g2 x2 | _A2 _a2 x2 G2 | ^F2 x2 g2 x2 | %219
 x8 | D2 x6 | C2 c2 c2 B2 | B2 A2 G2 ^F2 | x6 G2 | x8 | _A2 _a2 z4 | ^F2 x2 g2 x2 | x8 | D2 x6 | %229
 C2 x6 | c2 e2 d2 e2 | e2 _g2 f2 g2 |!8va(! ^f2 a2 b2 b2 | c'2 b2 b2 a2 | a2 g2 g2 d2 | x8 | x8 | %237
 x4!8va)! x4 | x8 | x8 | x8 | x8 | x8 | x8 |!8va(! x8 | x33/5!8va)! x7/5 | x8 | x8 | x8 | g x7 | %250
 x8 | x8 | x81/10 | x8 | x8 | x4!8va(! x4 | x8!8va)! | x8 | x8 | x8 |!8va(! x8!8va)! | x8 |] %262
V:5
 x8 | x8 | x8 | x9 | x9 | x8 | x8 ||[M:6/4] x4 x4 D3 x | x12 | x4 x4 D3 x | x12 | x4 x4 D3 x | %12
 x12 | x4 x4 A4 | x12 | x8 D3 x | x12 | x4 x4 D3 x | x12 | x4 x4 D3 x | x12 | x12 | x12 | x12 | %24
 x12 | x12 | x12 | x12 | x12 | x12 | x12 | x12 | x12 | x12 | x12 | x12 | x12 | x12 | x12 | x12 | %40
 x12 | x12 | x12 | x12 | x12 | x12 | x12 | x3!8va(! x9 | x12 | x11!8va)! x | x12 | x12 | x12 | %53
 x12 | x12 | x10!8va(! x2 | x3!8va)! x9 | x12 | x12 | x10!8va(! x2 | x3!8va)! x9 | x12 | x12 | %63
 x10!8va(! x2 | x2!8va)! x10 | x12 | x12 | x12 | x12 | x12 | x12 | x12 | x12 | x12 | x12 | x12 | %76
 x12 | x12 | x12 | x12 | x12 | x12 | x12 | x12 | x12 | x12 | x12 | x12 | x12 | x12 | x12 | x12 | %92
 x12 | x8 =E3 x | x6 =E6 | z2 (.[FA]2 .[FA]2) x2 =E3 x | x12 | x7 D4 x | x6 =E6 | ^F6 x3 ^G2 x | %100
 x6 ^F6 | z2 [Ac^d]2 [Acd]2 z2 [Acd]2 x2 | z2 [Ac^d]2 [Acd]2 z2 [Acd]2 x2 | %103
 z2 [Ac^d]2 [Acd]2 z2 [Acd]2 x2 | z2 [c^d^f]2 [cdf]2 z2!<(! [cdf]2!<)! [Acdf]2 | x12 | x12 | x12 | %108
 x12 | x12 | x12 | x12 | [^c^f]6 x6 | x12 | x12 | x12 | x6!8va(! x6 | x2!8va)! x10 | x12 | x12 | %120
 x12 | x12 | x12 | x12 |[K:bass] x12 | x12 | x12 | x12 | x12 |[K:treble] x12 | x12 | x12 | %132
!8va(! x12 | x12 | x12 | x12 | x6!8va)! x6 | x12 | x12 | x12 | x12 | x12 | x12 | x12 | x12 | x12 | %146
 x12 | x12 | x12 | x12 | x12 | x12 | x12 | x12 | x12 | x12 | x12 | x12 | x12 | x12 | x12 | %161
 x5!8va(! x7 | x6!8va)! x6 | x12 | x12 | x12 | x12 | x12 | x12 | x12 | x12 | x12 | x12 | x12 | %174
 x12 | x12 | x12 | x12 | x6 d2 d4 x18 | x12 | x12 | x12 | x12 | x12 | x12 | x12 | x12 | x12 | x12 | %189
 x12 | x12 | x12 | x12 | x4 x4 D3 x | x12 | x8 D3 x | x12 | x8 D3 x | x12 | x8 ^C3 x | x12 | x12 | %202
 x12 | x12 | x12 | x3!8va(! x9!8va)! | x12 ||[M:2/2] x2!8va(! x6!8va)! | x8 | x8 | x8 | %211
 x2!8va(! x6!8va)! | x8 | x8 | x8 | x8 | x8 | x8 | x8 | x8 | x8 | x8 | x8 | x8 | x8 | x8 | x8 | %227
 x8 | x8 | x8 | x8 | x8 |!8va(! x8 | x8 | x8 | x8 | x8 | x4!8va)! x4 | x8 | x8 | x8 | x8 | x8 | %243
 x8 |!8va(! x8 | x33/5!8va)! x7/5 | x8 | x8 | x8 | x8 | x8 | x8 | x81/10 | x8 | x8 | x4!8va(! x4 | %256
 x8!8va)! | x8 | x8 | x8 |!8va(! x8!8va)! | x8 |] %262
V:6
 x8 | x8 | x8 | x9 | x9 | x8 | x8 ||[M:6/4] x9 ^F2 x | x12 | x9 ^F2 x | x12 | x9 ^F2 x | x12 | %13
 x12 | x12 | x9 ^F2 x | x12 | x9 ^F2 x | x12 | x9 ^F2 x | x12 | x12 | x12 | x12 | x12 | x12 | x12 | %27
 x12 | x12 | x12 | x12 | x12 | x12 | x12 | x12 | x12 | x12 | x12 | x12 | x12 | x12 | x12 | x12 | %43
 x12 | x12 | x12 | x12 | x3!8va(! x9 | x12 | x11!8va)! x | x12 | x12 | x12 | x12 | x12 | %55
 x10!8va(! x2 | x3!8va)! x9 | x12 | x12 | x10!8va(! x2 | x3!8va)! x9 | x12 | x12 | x10!8va(! x2 | %64
 x2!8va)! x10 | x12 | x12 | x12 | x12 | x12 | x12 | x12 | x12 | x12 | x12 | x12 | x12 | x12 | x12 | %79
 x12 | x12 | x12 | x12 | x12 | x12 | x12 | x12 | x12 | x12 | x12 | x12 | x12 | x12 | x12 | x12 | %95
 x12 | x12 | x12 | x12 | x7 C4 x | x12 | x12 | x12 | x12 | x12 | x12 | x12 | x12 | x12 | x12 | %110
 x12 | x12 | x12 | x12 | x12 | x12 | x6!8va(! x6 | x2!8va)! x10 | x12 | x12 | x12 | x12 | x12 | %123
 x12 |[K:bass] x12 | x12 | x12 | x12 | x12 |[K:treble] x12 | x12 | x12 |!8va(! x12 | x12 | x12 | %135
 x12 | x6!8va)! x6 | x12 | x12 | x12 | x12 | x12 | x12 | x12 | x12 | x12 | x12 | x12 | x12 | x12 | %150
 x12 | x12 | x12 | x12 | x12 | x12 | x12 | x12 | x12 | x12 | x12 | x5!8va(! x7 | x6!8va)! x6 | %163
 x12 | x12 | x12 | x12 | x12 | x12 | x12 | x12 | x12 | x12 | x12 | x12 | x12 | x12 | x12 | x30 | %179
 x12 | x12 | x12 | x12 | x12 | x12 | x12 | x12 | x12 | x12 | x12 | x12 | x12 | x12 | x9 ^F2 x | %194
 x12 | x9 ^F2 x | x12 | x9 ^F2 x | x12 | x9 =E2 x | x12 | x12 | x12 | x12 | x12 | %205
 x3!8va(! x9!8va)! | x12 ||[M:2/2] x2!8va(! x6!8va)! | x8 | x8 | x8 | x2!8va(! x6!8va)! | x8 | x8 | %214
 x8 | x8 | x8 | x8 | x8 | x8 | x8 | x8 | x8 | x8 | x8 | x8 | x8 | x8 | x8 | x8 | x8 | x8 | %232
!8va(! x8 | x8 | x8 | x8 | x8 | x4!8va)! x4 | x8 | x8 | x8 | x8 | x8 | x8 |!8va(! x8 | %245
 x33/5!8va)! x7/5 | x8 | x8 | x8 | x8 | x8 | x8 | x81/10 | x8 | x8 | x4!8va(! x4 | x8!8va)! | x8 | %258
 x8 | x8 |!8va(! x8!8va)! | x8 |] %262

